X:1
T:Title
%%score { ( 1 4 ) | ( 2 3 ) }
L:1/8
Q:1/4=100
M:2/4
K:G
V:1 treble nm="Grand Piano"
V:4 treble 
V:2 bass 
V:3 bass 
V:1
 [EG]2 [^DF][EG] | [=FA]G [G,CEG]2 | [=FA]G B2 | [=FA]G c2 | [EG]2 [^DF][EG] | [=FA]G [G,CEG]2 | %6
w: E.~E.~Meyer * *||||||
 [=FG]d AB | [Ec]4 | [=FB]2 [Fd]2 | [D=F]2 [FB]2 | [=FA]2 [EG]^F | [EG]4 | [EG]2 [B,D]E | [D=F]4 | %14
w: ||||||||
 [=FA]2 [EG]^F | [EG]4 | [=FB]2 [Fd]2 | [D=F]2 [FB]2 | [=FA]2 [EG]^F | [EG]4 | [=FG]2 [Fd]2 | %21
w: |||||||
 [=FA]2 [FB]2 | [Ec]4- |[M:3/4] [Ec]6 |] %24
w: |||
V:2
 C,2 A,G, | z E E,2 | z[K:treble] =F [=F,G,B,F]2 | z E [E,G,CE]2 | C,2 A,G, | z E E,2 | %6
 z[K:treble] =F FF | C,2 E,2 | G,,2 [=F,G,B,]2 | B,,2 [=F,G,D]2 | C,2 z ^D | C,2 E,2 | %12
 z2 [=F,G,]2 | B,,2 =F,2 | C,2 z ^D | C,2 E,2 | G,,2 [=F,G,B,]2 | B,,2 [=F,G,D]2 | C,2 z ^D | %19
 C,2 E,2 | G,,2 [=F,G,B,]2 | B,,2 [=F,G,D]2 | C,2 E,2- |[M:3/4] E,6 |] %24
V:3
 x4 | C,2 z2 | G,,2[K:treble] z2 | C,2 z2 | x4 | C,2 z2 | G,,2[K:treble] [=F,G,D]2 | x4 | x4 | x4 | %10
 z2 [E,G,C]2 | x4 | G,,2 z C | x4 | z2 [E,G,C]2 | x4 | x4 | x4 | z2 [E,G,C]2 | x4 | x4 | x4 | x4 | %23
[M:3/4] x6 |] %24
V:4
 x4 | x4 | x4 | x4 | x4 | x4 | x4 | z2 [G,C]2 | x4 | x4 | x4 | z2 [G,C]2 | x4 | z2 [G,B,]2 | x4 | %15
 z2 [G,C]2 | x4 | x4 | x4 | z2 [G,C]2 | x4 | x4 | z2 [G,C]2- |[M:3/4] [G,C]6 |] %24

